X: 20607
T: John Of Paris
R: jig
M: 6/8
K: Gmajor
d2 c|:B2 B B^AB|d2 B B^AB|c2 e g2 e|d2 B B^AB|
[1 c2 A A^GA|B2 G GFG|A2 E A2 G|F2 d cc/B/A:|
[2 c2 A E2 A|BAG g2 G|c2 e d2 F|G3- GB/c/d||
g2 d def|g2 a b3|b2 a g2 e|d2 c Bcd|
e2 e ecA|d2 d dB/A/G|c2 A B2 G|AFD d3|
B3 B^AB|d2 B B^AB|c2 e g2 e|d2 B B^AB|
c2 A e2 A|BAG g3|c2 e d2 F|G3||

